Health-Day/assets/Tiens_Logo.svg

<?xml version="1.0" encoding="UTF-8" standalone="no"?>
<!-- Created with Inkscape (http://www.inkscape.org/) -->
<svg xmlns:svg="http://www.w3.org/2000/svg" xmlns="http://www.w3.org/2000/svg" version="1.1" width="580" height="600" id="svg2">
  <defs id="defs6"/>
  <path d="m 327,489.00008 19.84272,0 c 18.70281,0 20.07695,0.12926 23.92024,2.25 2.85088,1.57313 10.34375,9.74684 24.90728,27.17048 L 416.5,543.34097 417.03214,489 450,489 l 0,108 -21.03212,0 c -15.75604,0 -21.87188,-0.35088 -24.37969,-1.39871 -2.35381,-0.98348 -9.34038,-8.47924 -23.53475,-25.25 0,0 -22.05344,-24.32754 -22.05344,-24.32754 L 359,597 l -32,0 0,-107.99992 z m -123,-0.0179 104.5,0.51784 0,10.5 0,10.5 -60.5,0.52933 0,18.97067 58,0 0,11.5 0,11.5 -58,0 0,22 60.5,0.49997 -0.16566,6.13656 c -0.0911,3.37512 -0.87604,7.5103 -1.74429,9.1893 C 303.27414,597.23813 305.36887,597 252.27749,597 L 204,597 l 0,-108.01784 0,2e-5 z m -64.5,0.51784 45.5,-0.53755 0,49.56844 c 0,42.02077 -0.22753,50.00843 -1.49429,52.45807 C 180.54358,596.71709 179.35579,597 158.26881,597 l -19.28618,0 0.51737,-107.5 0,2e-5 z M 38,511 l -38,0 0,-11 0,-11 121,0 0,22 -38,0 -0.0056,36.75 c -0.0033,21.98136 -0.416961,38.23117 -1.029256,40.43572 -0.563024,2.02715 -2.395041,4.83965 -4.071149,6.25 C 74.864347,596.98502 74.738958,597 56.423275,597 L 38,597 38,511 z m 462.43677,87.48978 c -10.49191,-1.92191 -20.93139,-5.2103 -30.11848,-9.48719 -9.58462,-4.46195 -9.71716,-5.11816 -2.62665,-13.00452 6.5355,-7.26905 9.02301,-7.66255 21.76612,-3.44321 25.63621,8.48835 45.54224,6.48902 45.54224,-4.57419 0,-6.40927 -2.64197,-7.73152 -23.94168,-11.98236 -27.60727,-5.50965 -36.81835,-10.42443 -42.1654,-22.49831 -3.42631,-7.73677 -3.18188,-17.42406 0.61476,-24.36422 6.08933,-11.13115 19.94628,-18.54949 40.49232,-21.67762 16.42705,-2.50101 33.78611,-1.24348 49.5,3.58591 8.4987,2.61193 18.5,7.75987 18.5,9.52245 0,1.7498 -6.48581,6.97153 -11.7084,9.42643 -5.45436,2.56386 -10.16702,2.51948 -18.2916,-0.17224 -9.57995,-3.1739 -30.45447,-3.26615 -37.16566,-0.16425 -9.27175,4.28539 -9.94958,10.63564 -1.53267,14.35884 2.36016,1.04401 10.50367,3.0456 18.09669,4.44798 21.69621,4.00714 28.32753,5.85516 37.3457,10.40752 10.92833,5.51661 15.79265,13.84362 15.08697,25.82671 -0.83779,14.22626 -9.96162,24.32241 -27.41094,30.3321 -13.63286,4.69527 -36.81645,6.23844 -51.98332,3.46017 z" id="path2836" style="fill:#231f20;fill-opacity:1"/>
  <path d="M 478.47539,201.26956 C 474.30689,178.69974 471.55868,170 468.59746,170 c -2.244,0 -5.40847,9.01111 -8.1246,23.1356 -4.37974,22.77556 -6.56635,31.98546 -10.15864,42.78781 -6.4985,19.54158 -16.00858,35.81956 -26.85415,45.96506 -5.55834,5.19956 -15.53175,12.07065 -17.56629,12.10215 20.46465,-67.21922 7.50289,-125.59122 -4.21454,-163.07518 25.60189,-45.094824 54.21626,-71.638733 67.62494,-84.356347 77.39093,73.398517 117.93905,148.654997 74.69576,253.118597 -41.41183,-12.72263 -56.07218,-61.29042 -65.52455,-98.40813 z M 34.143335,298.25 C 32.231166,294.64032 26.894364,278.44341 24.55257,269.14255 18.579327,245.41873 17.172622,215.49818 21.024723,194.10543 27.671872,157.19028 48.484758,117.02647 80.926944,78.508707 88.98129,68.945992 109.85273,46.996961 110.88445,47.004495 c 1.59922,0.01168 14.26248,12.44867 24.28001,23.846164 16.2064,18.599391 31.26956,38.349731 43.26636,59.951821 -7.68626,21.42804 -13.03926,43.32078 -15.50956,65.97398 -4.01751,33.189 4.85946,65.13575 11.23707,97.21416 -34.43232,-18.00317 -44.41991,-56.15252 -52.69292,-91.63967 -4.85814,-24.3128 -7.08674,-31.65434 -9.76558,-32.17024 -2.82256,-0.54358 -2.86588,7.10581 -9.58875,28.37791 -9.707072,38.82248 -21.400065,75.91029 -57.495437,97.985 -7.839096,3.93572 -9.175961,4.15355 -10.472308,1.70638 z m 364.889985,15.88223 c 24.87159,-5.57038 41.52273,-24.87887 56.3936,-44.23508 C 462.85029,259.37986 466.89096,255 469.17037,255 c 1.12549,0 4.02291,3.3386 7.89469,9.09675 16.05489,20.77658 37.54558,38.09212 60.68066,50.64041 C 521.13549,346.59949 497.32454,372.21675 468.88669,394 438.76446,374.41412 416.70771,344.82434 399.03332,314.13223 z M 53.507259,334 c -8.898755,-13.48259 -12.180751,-19.21016 -11.136298,-19.70429 24.883284,-10.04425 43.971192,-27.90424 60.011199,-49.05113 4.81248,-7.16371 7.35909,-10.35289 9.64541,-10.31563 1.63602,0.0267 3.13875,1.70537 5.24304,4.76203 15.6359,25.34448 35.69199,44.68586 63.53713,54.79082 -15.48146,32.62977 -41.93141,57.04445 -69.48178,79.50926 C 87.829169,378.63856 69.596673,356.67089 53.507259,334 z" id="path2826" style="fill:#53b949;fill-opacity:1;stroke:none"/>
  <path d="M 177.46947,204.5 C 183.89582,126.57982 232.02197,50.527083 292.22522,3.8837199 345.70074,44.407484 376.29272,100.57389 397.49831,168.5 c 8.417,26.96149 7.10941,61.59443 1.46694,88.5 -3.51481,16.76002 -7.81087,37.14922 -9.97313,36.3325 -34.77066,-8.01606 -53.71157,-36.99214 -68.02263,-67.3325 -12.88243,-29.5039 -16.29706,-61.4101 -22.83683,-92.58345 -2.34824,-12.74436 -5.69859,-19.90409 -8.7636,-18.72793 -3.45074,1.32417 -7.09498,13.86688 -10.40485,35.81138 -2.28237,15.13216 -2.67219,17.06278 -7.47075,37 -11.66991,48.48648 -32.49431,83.0366 -59.5564,98.81106 C 207.33996,288.99071 194.54514,294 192.29784,294 178.68334,267.84853 177.18466,233.5127 177.46947,204.5 z M 283,418.93476 C 259.07682,400.64047 237.56463,377.53786 220.20757,351.5 c -8.73002,-13.09618 -21.59006,-36.85254 -20.9648,-38.72831 48.31129,-20.4366 79.17851,-66.4227 91.94741,-84.25221 14.67748,28.61317 38.6497,57.29455 89.29171,84.45122 0.76766,1.2421 -1.98603,7.20566 -9.69678,21.00001 -15.34867,27.45835 -35.1982,51.74441 -61.60107,75.36935 -4.89361,4.37874 -18.41913,14.68385 -19.17916,14.61262 -0.27768,-0.026 -3.42988,-2.28409 -7.00488,-5.01792 z" id="path2822" style="fill:#fdb813;fill-opacity:0.99866249"/>
</svg>

<svg width="580" height="600" viewBox="0 0 580 600" fill="none" xmlns="http://www.w3.org/2000/svg">
<path d="M327 489H346.843C365.546 489 366.92 489.129 370.763 491.25C373.614 492.823 381.107 500.997 395.67 518.421L416.5 543.341L417.032 489H450V597H428.968C413.212 597 407.096 596.649 404.588 595.601C402.234 594.618 395.248 587.122 381.053 570.351L359 546.024V597H327V489ZM204 488.982L308.5 489.5V500V510.5L248 511.029V530H306V541.5V553H248V575L308.5 575.5L308.334 581.637C308.243 585.012 307.458 589.147 306.59 590.826C303.274 597.238 305.369 597 252.277 597H204V488.982V488.982ZM139.5 489.5L185 488.962V538.531C185 580.552 184.772 588.539 183.506 590.989C180.544 596.717 179.356 597 158.269 597H138.983L139.5 489.5V489.5ZM38 511H0V500V489H121V511H83L82.9944 547.75C82.9911 569.731 82.5774 585.981 81.9651 588.186C81.4021 590.213 79.5701 593.025 77.894 594.436C74.8643 596.985 74.739 597 56.4233 597H38V511ZM500.437 598.49C489.945 596.568 479.505 593.279 470.318 589.003C460.734 584.541 460.601 583.884 467.692 575.998C474.227 568.729 476.715 568.336 489.458 572.555C515.094 581.043 535 579.044 535 567.981C535 561.571 532.358 560.249 511.058 555.998C483.451 550.489 474.24 545.574 468.893 533.5C465.467 525.763 465.711 516.076 469.508 509.136C475.597 498.005 489.454 490.586 510 487.458C526.427 484.957 543.786 486.215 559.5 491.044C567.999 493.656 578 498.804 578 500.567C578 502.316 571.514 507.538 566.292 509.993C560.837 512.557 556.125 512.512 548 509.821C538.42 506.647 517.546 506.555 510.834 509.656C501.563 513.942 500.885 520.292 509.302 524.015C511.662 525.059 519.805 527.061 527.398 528.463C549.095 532.47 555.726 534.318 564.744 538.871C575.672 544.387 580.537 552.714 579.831 564.698C578.993 578.924 569.869 589.02 552.42 595.03C538.787 599.725 515.604 601.268 500.437 598.49V598.49Z" fill="white"/>
<path d="M478.475 201.27C474.307 178.7 471.559 170 468.597 170C466.353 170 463.189 179.011 460.473 193.136C456.093 215.911 453.906 225.121 450.314 235.923C443.816 255.465 434.306 271.743 423.46 281.888C417.902 287.088 407.928 293.959 405.894 293.991C426.358 226.771 413.397 168.399 401.679 130.915C427.281 85.8206 455.895 59.2767 469.304 46.5591C546.695 119.958 587.243 195.214 544 299.678C502.588 286.955 487.928 238.387 478.475 201.27V201.27ZM34.1433 298.25C32.2312 294.64 26.8944 278.443 24.5526 269.143C18.5793 245.419 17.1726 215.498 21.0247 194.105C27.6719 157.19 48.4848 117.026 80.927 78.5087C88.9813 68.946 109.853 46.997 110.884 47.0045C112.484 47.0162 125.147 59.4532 135.164 70.8507C151.371 89.4501 166.434 109.2 178.431 130.802C170.745 152.231 165.392 174.123 162.921 196.776C158.904 229.965 167.781 261.912 174.158 293.991C139.726 275.987 129.738 237.838 121.465 202.351C116.607 178.038 114.379 170.697 111.7 170.181C108.877 169.637 108.834 177.287 102.111 198.559C92.404 237.381 80.711 274.469 44.6157 296.544C36.7766 300.479 35.4397 300.697 34.1433 298.25V298.25ZM399.033 314.132C423.905 308.562 440.556 289.253 455.427 269.897C462.85 259.38 466.891 255 469.17 255C470.296 255 473.193 258.339 477.065 264.097C493.12 284.873 514.611 302.189 537.746 314.737C521.135 346.599 497.325 372.217 468.887 394C438.764 374.414 416.708 344.824 399.033 314.132ZM53.5073 334C44.6085 320.517 41.3265 314.79 42.371 314.296C67.2543 304.251 86.3422 286.391 102.382 265.245C107.195 258.081 109.741 254.892 112.028 254.929C113.664 254.956 115.166 256.634 117.271 259.691C132.907 285.035 152.963 304.377 180.808 314.482C165.326 347.112 138.876 371.526 111.326 393.991C87.8292 378.639 69.5967 356.671 53.5073 334Z" fill="#53B949"/>
<path d="M177.469 204.5C183.896 126.58 232.022 50.5271 292.225 3.88373C345.701 44.4075 376.293 100.574 397.498 168.5C405.915 195.462 404.608 230.094 398.965 257C395.45 273.76 391.154 294.149 388.992 293.332C354.221 285.316 335.281 256.34 320.969 226C308.087 196.496 304.672 164.59 298.133 133.417C295.784 120.672 292.434 113.512 289.369 114.689C285.918 116.013 282.274 128.556 278.964 150.5C276.682 165.632 276.292 167.563 271.493 187.5C259.824 235.986 238.999 270.537 211.937 286.311C207.34 288.991 194.545 294 192.298 294C178.683 267.849 177.185 233.513 177.469 204.5ZM283 418.935C259.077 400.64 237.565 377.538 220.208 351.5C211.478 338.404 198.617 314.647 199.243 312.772C247.554 292.335 278.421 246.349 291.19 228.52C305.868 257.133 329.84 285.814 380.482 312.971C381.25 314.213 378.496 320.176 370.785 333.971C355.436 361.429 335.587 385.715 309.184 409.34C304.29 413.719 290.765 424.024 290.005 423.953C289.727 423.927 286.575 421.669 283 418.935V418.935Z" fill="#53B949" fill-opacity="0.998662"/>
</svg>
